X:1
T:Title
%%score { 1 | ( 2 3 ) }
L:1/8
M:4/4
K:Bb
V:1 treble nm="Grand Piano"
V:2 bass 
V:3 bass 
V:1
 z4 z2[Q:1/4=100] [B,D][CE] | [DF][DF][DF][DF] [EG]<[DF] [B,EG][B,FA] | %2
 [B,GB][B,GB][B,GB][B,^FA] [B,GB]2 [B,DB][Ec] | [Fd][Fd][Fd][Fd] [Fd]<[=Ec] [EB]>G | c6 D[CE] | %5
[M:3/4] [DF][DF] [DF][DF] [EG]<[DF] |[M:1/4] [EG][FA] |[M:4/4] [GB][GB][GB][^FA] [GB]2 [GB][Fc] | %8
 dddd dcBA |[M:3/4] [DB]6 |[M:1/4] [DB][Fd] |[M:4/4] [Ge][Ge][Ge][Ge] [Ge][EG][GB][^Fc] | %12
 [Fd]6 [Fd][Fd] | [=Ec][Ec][Ec][Ec] [Ec][Ec][Bd][Bd] | [Ac]6[K:bass] [F,B,D][F,CE] | %15
[M:3/4][K:treble] [DF][DF] [DF][DF] [DF]2 |[M:1/4] [EG][FA] | %17
[M:4/4] [GB][GB][GB][^FA] [GB]2 [GB][Fc] | dddd dcBA |[M:7/4] [DB]6 z2 z2 z4 |] %20
V:2
 z4 z2 [B,,F,][B,,F,] | [B,,B,][B,,B,][B,,B,][B,,B,] [B,,B,]<[B,,B,] E,E, | E,E,E,E, E,2 z F, | %3
 [B,,B,][B,,B,][B,,B,][B,,B,] [B,,B,]<[C,F,] [C,G,]>[G,B,=E] | [F,A,F]6 [B,,F,B,][B,,F,] | %5
[M:3/4] [B,,B,][B,,B,] [B,,B,][B,,B,] [B,,B,]<[B,,B,] |[M:1/4] [E,B,]2 | %7
[M:4/4] [E,B,][E,E][E,E][E,E] [E,E]2 [E,B,][E,B,] | %8
 [F,B,F][F,B,F][F,B,F][F,B,F] [F,B,F][F,A,E][F,B,D][F,C] |[M:3/4] [B,,F,]6 | %10
[M:1/4] [B,,F,][B,,B,] |[M:4/4] [E,B,][E,B,][E,B,][E,B,] [E,B,][E,B,][E,B,][E,B,] | %12
 [B,,B,]6 [B,,B,][B,,B,] | [C,G,][C,G,][C,G,][C,G,] [C,G,][C,G,][C,=E,][C,E,] | F,6 B,,B,, | %15
[M:3/4] [B,,B,][B,,B,] [B,,B,][B,,B,] [B,,B,]2 |[M:1/4] [E,B,]2 | %17
[M:4/4] [E,B,][E,E][E,E][E,E] [E,E]2 [E,B,][E,B,] | %18
 [F,B,F][F,B,F][F,B,F][F,B,F] [F,B,F][F,A,E][F,B,D][F,C] |[M:7/4] [B,,F,]6 z2 z2 z4 |] %20
V:3
 x8 | x8 | z4 z2 B,,2 | x8 | x8 |[M:3/4] x6 |[M:1/4] x2 |[M:4/4] x8 | x8 |[M:3/4] x6 |[M:1/4] x2 | %11
[M:4/4] x8 | x8 | x8 | x8 |[M:3/4] x6 |[M:1/4] x2 |[M:4/4] x8 | x8 |[M:7/4] x14 |] %20

